Newaita/actions/22/audio-volume-medium.svg

<svg height="22" viewBox="0 0 22 22" width="22" xmlns="http://www.w3.org/2000/svg"><g fill="#424242"><path d="m10.003906 1.996094c-.007812 0-.015625 0-.023437 0-.261719.007812-.503907.125-.671875.324218l-4.273438 5.132813h-.03125v7.269531h.03125l4.273438 5.128906c.246094.292969.648437.402344 1.003906.273438.359375-.128906.597656-.46875.597656-.851562v-16.371094c0-.503906-.40625-.910156-.90625-.90625zm-7.273437 5.457031c-.5 0-.90625.40625-.90625.90625v5.457031c0 .5.40625.90625.90625.90625h1.363281v-7.269531zm0 0"/><path d="m13.539062 6.445312c-.402343-.011718-.761718.246094-.886718.628907-.121094.382812.023437.800781.355468 1.023437.9375.660156 1.550782 1.742188 1.550782 2.988282 0 1.25-.613282 2.332031-1.550782 2.988281-.269531.183593-.421874.5-.394531.824219.027344.324218.226563.609374.523438.746093s.644531.105469.90625-.085937c1.410156-.984375 2.324219-2.625 2.324219-4.472656 0-1.84375-.914063-3.484376-2.324219-4.46875-.144531-.109376-.324219-.167969-.503907-.171876zm0 0"/><path d="m15.625 3.460938c-.402344-.007813-.761719.246093-.882812.628906-.125.382812.019531.800781.351562 1.027344 1.878906 1.3125 3.101562 3.484374 3.101562 5.96875 0 2.488281-1.222656 4.65625-3.101562 5.972656-.269531.183594-.417969.496094-.390625.824218.023437.324219.226563.609376.523437.746094.292969.136719.640626.101563.90625-.085937 2.347657-1.644531 3.875-4.375 3.875-7.457031 0-3.082032-1.527343-5.8125-3.875-7.453126-.148437-.105468-.324218-.167968-.507812-.171874zm0 0" fill-opacity=".392157"/></g></svg>

<svg xmlns="http://www.w3.org/2000/svg" xmlns:xlink="http://www.w3.org/1999/xlink" width="22px" height="22px" viewBox="0 0 22 22" version="1.1">
<g id="surface1">
     <defs>
  <style id="current-color-scheme" type="text/css">
   .ColorScheme-Text { color:#424242; } .ColorScheme-Highlight { color:#eeeeee; }
  </style>
 </defs>
<path style="fill:currentColor" class="ColorScheme-Text" d="M 10.003906 1.996094 C 9.996094 1.996094 9.988281 1.996094 9.980469 1.996094 C 9.71875 2.003906 9.476562 2.121094 9.308594 2.320312 L 5.035156 7.453125 L 5.003906 7.453125 L 5.003906 14.722656 L 5.035156 14.722656 L 9.308594 19.851562 C 9.554688 20.144531 9.957031 20.253906 10.3125 20.125 C 10.671875 19.996094 10.910156 19.65625 10.910156 19.273438 L 10.910156 2.902344 C 10.910156 2.398438 10.503906 1.992188 10.003906 1.996094 Z M 2.730469 7.453125 C 2.230469 7.453125 1.824219 7.859375 1.824219 8.359375 L 1.824219 13.816406 C 1.824219 14.316406 2.230469 14.722656 2.730469 14.722656 L 4.09375 14.722656 L 4.09375 7.453125 Z M 2.730469 7.453125 "/>
     <defs>
  <style id="current-color-scheme" type="text/css">
   .ColorScheme-Text { color:#424242; } .ColorScheme-Highlight { color:#eeeeee; }
  </style>
 </defs>
<path style="fill:currentColor" class="ColorScheme-Text" d="M 13.539062 6.445312 C 13.136719 6.433594 12.777344 6.691406 12.652344 7.074219 C 12.53125 7.457031 12.675781 7.875 13.007812 8.097656 C 13.945312 8.757812 14.558594 9.839844 14.558594 11.085938 C 14.558594 12.335938 13.945312 13.417969 13.007812 14.074219 C 12.738281 14.257812 12.585938 14.574219 12.613281 14.898438 C 12.640625 15.222656 12.839844 15.507812 13.136719 15.644531 C 13.433594 15.78125 13.78125 15.75 14.042969 15.558594 C 15.453125 14.574219 16.367188 12.933594 16.367188 11.085938 C 16.367188 9.242188 15.453125 7.601562 14.042969 6.617188 C 13.898438 6.507812 13.71875 6.449219 13.539062 6.445312 Z M 13.539062 6.445312 "/>
<path style=" stroke:none;fill-rule:nonzero;fill:rgb(25.882354%,25.882354%,25.882354%);fill-opacity:0.392157;" d="M 15.625 3.460938 C 15.222656 3.453125 14.863281 3.707031 14.742188 4.089844 C 14.617188 4.472656 14.761719 4.890625 15.09375 5.117188 C 16.972656 6.429688 18.195312 8.601562 18.195312 11.085938 C 18.195312 13.574219 16.972656 15.742188 15.09375 17.058594 C 14.824219 17.242188 14.675781 17.554688 14.703125 17.882812 C 14.726562 18.207031 14.929688 18.492188 15.226562 18.628906 C 15.519531 18.765625 15.867188 18.730469 16.132812 18.542969 C 18.480469 16.898438 20.007812 14.167969 20.007812 11.085938 C 20.007812 8.003906 18.480469 5.273438 16.132812 3.632812 C 15.984375 3.527344 15.808594 3.464844 15.625 3.460938 Z M 15.625 3.460938 "/>
</g>
</svg>
